X: 16060
T: Green Fields Of Canada
R: barndance
M: 4/4
K: Dmixolydian
|A2|c4 A2 B/A/G|A4 A3A|d3c d3A|GF/D/ D2 DE|
=F3G A2 B/A/G|G6 A>G|F<D D2 D4|D4 D2||
A3G Ad3|d6 e2|=f3e d2 d2|d/c/d/e/ d>c A4|
G3A d3e|=f3e d3c|A<G G2 Ac d2|de d3^c AG|
A4 A3A|d3c d3A|GF/D/ D2 D3E|=F3G A2 B/A/G|
G6 A>G|F<D D4|D4 D4|D4 D4||

